src/assets/images/upload.svg

<?xml version="1.0" encoding="UTF-8"?>
<svg width="70px" height="64px" viewBox="0 0 70 64" version="1.1" xmlns="http://www.w3.org/2000/svg" xmlns:xlink="http://www.w3.org/1999/xlink">
    <!-- Generator: Sketch 55.2 (78181) - https://sketchapp.com -->
    <title>upload</title>
    <desc>Created with Sketch.</desc>
    <g id="Final-Screens" stroke="none" stroke-width="1" fill="none" fill-rule="evenodd">
        <g id="customer-master-v1.2-copy-2" transform="translate(-1036.000000, -273.000000)" fill="#9B9B9B" fill-rule="nonzero">
            <g id="Group-6" transform="translate(270.000000, 184.000000)">
                <g id="Group-9" transform="translate(742.000000, 89.000000)">
                    <g id="upload" transform="translate(24.000000, 0.000000)">
                        <path d="M56.3953704,16.7117063 C55.6538889,12.3280754 53.4722222,8.32748016 50.1355556,5.29156746 C46.4281481,1.91517857 41.6085185,0.0567460317 36.5892593,0.0567460317 C32.7107407,0.0567460317 28.932037,1.16329365 25.6951852,3.24871032 C23.0001852,4.97946429 20.7614815,7.3202381 19.1787037,10.0724206 C18.4942593,9.94474206 17.7812963,9.87380952 17.0683333,9.87380952 C11.0081481,9.87380952 6.07444444,14.7823413 6.07444444,20.8116071 C6.07444444,21.5918651 6.16,22.34375 6.30259259,23.0814484 C2.3812963,25.91875 0,30.4868056 0,35.3527778 C0,39.2824405 1.4687037,43.0986111 4.14944444,46.1203373 C6.90148148,49.212996 10.5375926,51.0430556 14.4161111,51.2558532 C14.4588889,51.2558532 14.4874074,51.2558532 14.5301852,51.2558532 L26.7931481,51.2558532 C27.8625926,51.2558532 28.7181481,50.4046627 28.7181481,49.3406746 C28.7181481,48.2766865 27.8625926,47.425496 26.7931481,47.425496 L14.5872222,47.425496 C8.75518519,47.0708333 3.85,41.5522817 3.85,35.3385913 C3.85,31.3238095 6.01740741,27.5785714 9.51092593,25.5499008 C10.3237037,25.081746 10.6659259,24.102877 10.3522222,23.2233135 C10.067037,22.4572421 9.92444444,21.6486111 9.92444444,20.7832341 C9.92444444,16.8677579 13.1327778,13.6757937 17.0683333,13.6757937 C17.9096296,13.6757937 18.7366667,13.8176587 19.5066667,14.1013889 C20.4477778,14.4418651 21.4887037,14.0162698 21.9164815,13.1225198 C24.582963,7.49047619 30.3437037,3.85873016 36.6035185,3.85873016 C45.0164815,3.85873016 51.9607407,10.1291667 52.7592593,18.4424603 C52.8448148,19.3078373 53.5007407,20.0029762 54.3562963,20.1448413 C60.7016667,21.2230159 65.4927778,27.0536706 65.4927778,33.7071429 C65.4927778,40.7578373 59.9174074,46.8864087 53.0444444,47.4113095 L42.5353704,47.4113095 C41.4659259,47.4113095 40.6103704,48.2625 40.6103704,49.3264881 C40.6103704,50.3904762 41.4659259,51.2416667 42.5353704,51.2416667 L53.1157407,51.2416667 C53.1585185,51.2416667 53.2012963,51.2416667 53.2583333,51.2416667 C57.6074074,50.9295635 61.6712963,48.9434524 64.6942593,45.6238095 C67.702963,42.3325397 69.3427778,38.1049603 69.3427778,33.7071429 C69.3285185,25.7485119 63.8672222,18.6694444 56.3953704,16.7117063 Z" id="Shape"></path>
                        <path d="M46.2285185,37.1686508 C46.9842593,36.4167659 46.9842593,35.2109127 46.2285185,34.4590278 L36.0331481,24.3156746 C35.6766667,23.9610119 35.1775926,23.7482143 34.6785185,23.7482143 C34.1794444,23.7482143 33.6803704,23.9468254 33.3238889,24.3156746 L23.1285185,34.4590278 C22.3727778,35.2109127 22.3727778,36.4167659 23.1285185,37.1686508 C23.4992593,37.5375 23.9983333,37.7361111 24.4831481,37.7361111 C24.967963,37.7361111 25.467037,37.5516865 25.8377778,37.1686508 L32.7535185,30.2881944 L32.7535185,61.9099206 C32.7535185,62.9739087 33.6090741,63.8250992 34.6785185,63.8250992 C35.747963,63.8250992 36.6035185,62.9739087 36.6035185,61.9099206 L36.6035185,30.2881944 L43.5192593,37.1686508 C44.2607407,37.9205357 45.4727778,37.9205357 46.2285185,37.1686508 Z" id="Shape"></path>
                    </g>
                </g>
            </g>
        </g>
    </g>
</svg>

<?xml version="1.0" encoding="UTF-8"?>
<svg version="1.1" viewBox="0 0 70 64" xmlns="http://www.w3.org/2000/svg">
<title>upload</title>
<desc>Created with Sketch.</desc>
<g fill="none" fill-rule="evenodd">
<g transform="translate(-1036 -273)" fill="#9B9B9B" fill-rule="nonzero">
<g transform="translate(270 184)">
<g transform="translate(742 89)">
<g transform="translate(24)">
<path d="m56.395 16.712c-0.74148-4.3836-2.9231-8.3842-6.2598-11.42-3.7074-3.3764-8.527-5.2348-13.546-5.2348-3.8785 0-7.6572 1.1065-10.894 3.192-2.695 1.7308-4.9337 4.0715-6.5165 6.8237-0.68444-0.12768-1.3974-0.19861-2.1104-0.19861-6.0602 0-10.994 4.9085-10.994 10.938 0 0.78026 0.085556 1.5321 0.22815 2.2698-3.9213 2.8373-6.3026 7.4054-6.3026 12.271 0 3.9297 1.4687 7.7458 4.1494 10.768 2.752 3.0927 6.3881 4.9227 10.267 5.1355h0.11407 12.263c1.0694 0 1.925-0.85119 1.925-1.9152s-0.85556-1.9152-1.925-1.9152h-12.206c-5.832-0.35466-10.737-5.8732-10.737-12.087 0-4.0148 2.1674-7.76 5.6609-9.7887 0.81278-0.46815 1.155-1.447 0.8413-2.3266-0.28519-0.76607-0.42778-1.5747-0.42778-2.4401 0-3.9155 3.2083-7.1074 7.1439-7.1074 0.8413 0 1.6683 0.14186 2.4383 0.4256 0.94111 0.34048 1.982-0.085119 2.4098-0.97887 2.6665-5.632 8.4272-9.2638 14.687-9.2638 8.413 0 15.357 6.2704 16.156 14.584 0.085556 0.86538 0.74148 1.5605 1.597 1.7024 6.3454 1.0782 11.136 6.9088 11.136 13.562 0 7.0507-5.5754 13.179-12.448 13.704h-10.509c-1.0694 0-1.925 0.85119-1.925 1.9152s0.85556 1.9152 1.925 1.9152h10.58 0.14259c4.3491-0.3121 8.413-2.2982 11.436-5.6179 3.0087-3.2913 4.6485-7.5188 4.6485-11.917-0.014259-7.9586-5.4756-15.038-12.947-16.995z"/>
<path d="m46.229 37.169c0.75574-0.75188 0.75574-1.9577 0-2.7096l-10.195-10.143c-0.35648-0.35466-0.85556-0.56746-1.3546-0.56746s-0.99815 0.19861-1.3546 0.56746l-10.195 10.143c-0.75574 0.75188-0.75574 1.9577 0 2.7096 0.37074 0.36885 0.86981 0.56746 1.3546 0.56746 0.48481 0 0.98389-0.18442 1.3546-0.56746l6.9157-6.8805v31.622c0 1.064 0.85556 1.9152 1.925 1.9152 1.0694 0 1.925-0.85119 1.925-1.9152v-31.622l6.9157 6.8805c0.74148 0.75188 1.9535 0.75188 2.7093 0z"/>
</g>
</g>
</g>
</g>
</g>
</svg>
